X:219
T:Phiseog ar an Tr
M:6/8
L:1/8
R:jig
N:Kira brought this one back from Ireland
K:Ador
~A3 AGA|BGE GFG|~A3 GBd|e{f}gd edB|\
~A3 AGA|BGE G2D|GBA G2B|dBG B{c}dB:|
|:GBd ~g3|gba gdB|G{A}Bd ~g3|egd {g}edB|\
G{A}Bd ~g3|gba ~g3|aba agf|e{f}gd edB:|
